X: 3200
T: Beekeeper, The
R: jig
M: 6/8
K: Amixolydian
|:Acd e3|efd ecA|Acd e3|dcA G3|
Acd e3|efd efg|age dcA|1 GEF G3:|2 BGd edg||
|:edB A3|cAd ecA|dBG B3|AGd edg|
edB A3|cAd edg|age dcA|1 GEF G3:|BGd e3:|

